!!!ONB: MCCC : IJB0016_03 : Extracted Monophonic Melody
!!!COM: Brahms, Johannes
!!!OPR: Clarinet Sonata No.2
!!!OMV: 3
!!!SCT: Op.120 No.2
!!!ODT: 1894///
**kern
*staff1
*clefG2
*k[b-e-a-]
*E-:
*M6/8
16.b-
32cc
=2
8a-
8f
16.e-
32f
8d
8B-
16.c
32d
=3
8e-
8g
16.f
32g
8a-
8cc
16.ff
32dd
=4
8b-
8cc
16.a-
32f
8d
8e-
8e-
=5
8e-
8e-
8cc
4.b-
=6
2.r
=7
4.r
4r
16.ff
32dd
=8
8b-
8cc
16.a-
32f
8d
8e-
8e-
=9
8e-
8e-
8cc
4.b-
=10
2.r
=11
4.r
4r
16.ff
32dd
=12
16b-
16cc
16a-
16f
16.b-
32g
16e-
16f
16d
16B-
8a-
=13
8g
8e-
8dd-
8cc
8a-
8ff
=14
8b-
8b-
8ee-
4dd
8d
=15
8e-
8e-
8cc
4b-
8b-
=16
4a-
8e-
4d
8c
=17
8A
8B-
8f
8d
8e-
8cc
=18
4a-
8f
4d
8a-
=19
8g
8e-
8A
4.B-
=20
4a-
8e-
4d
8c
=21
8B-
8g
8f
8e-
8cc
8ee-
=22
4dd
8a-
4g
8f
=23
4.r
4r
8a
=24
4b-
8ee-
4dd
8g
=25
8a
8b-
8ee-
8dd
4b-
=26
2.r
=27
4.r
4r
8aa-
=28
8gg-
8ee-
8a
4b-
8dd
=29
8cc
8a-
8d
4e-
16.B-
32c
=30
4D
16.E-
32F
4D
16.c
32d
=31
4e-
16.F
32G
4A-
16.f
32d
=32
4B-
16.A-
32F
4D
16E-
16G
=33
16c
16e-
16g
16ee-
16dd
16cc
8a
4b-
=34
24r
24F
24A-
24d
24f
24a-
8cc
24r
24a-
24f
24d
24A-
24F
8A-
=35
24r
24G
24B-
24e-
24g
24b-
8dd-
24r
24cc
24a-
24e-
24c
24A-
8D
=36
24r
24E
24G
24d-
24e
24g
8c
24r
24F
24A-
24d
24f
24a-
8g
=37
16r
8G
8e-
16A
8A
8B-
16.dd
32ee-
=38
4dd
16.dd[
32dd]
4d
16.d[
32d]
=39
24D
24G
24B-
24c
24e-
24a
24g
24e-
24c
24B-
24c
24A
24G
24B-
24d
16.d
32c
=40
4D
16.E-
32F
4D
16.g
32f
=41
8.e-
16d-
16.c
32B-
8.A-
16G-
16.F
32E-
=42
16E-
16D
16F
16A-
16d
16a-
8a-
4g
=43
4.r
4r
32b-
32a
32b-
32b
=44
32cc
32a-
32f
32b
32cc
32a-
32f
32e-
8d
4r
32g
32e
32g
32f
=45
32e-
32g
32b-
32d
32e-
32g
32b-
32dd
8ee-
4r
32ff
32ee
32ff
32ee-
=46
32dd
32a-
32f
32dd-
32dd
32a-
32f
32e-
8d
8r
16r
32r
32dd
32ee-
32cc
32g-
32f
=47
16e-
32r
32dd
32ee-
32cc
32f
32e-
32A
32c
32e-
32a
16f
32r
32f
32b-
32dd
32ff
32aa
32bb-
32aa
32bb-
32bb
=48
32ccc
32aa-
32ff
32b
32cc
32a-
32f
32e-
8d
4r
32G
32E
32G
32F
=49
32E-
32G
32B-
32d
32e-
32g
32b-
32dd
8ee-
4r
32ff
32ee
32gg
32ff
=50
32dd
32a-
32f
32e-
8d
32ff
32ee
32gg
32ff
32ee-
32cc
32g
32f
16e-
32r
32dd
32ee-
32cc
32g-
32f
=51
16e-
32r
32dd
32ee-
32cc
32f
32b
32cc
32dd
32ee-
32cc
8a
8.b-
32r
32dd-
=52
16.dd
32a
32b-
32g
32d
32dd-
32dd
32a
32b-
32g
8g
8g-
16g-
32g
32a
=53
32b-
32g
32d
32a
32b-
32gg-
32gg
32aa
32bb-
32gg-
32gg
32dd-
8dd
4b-
=54
4r
32ddd
32bb-
32gg-
32gg
32aa-
32ff
32dd
32g
32a-
32f
32d
32c
8B-
=55
16r
32r
32g-
32g
32e-
8.B-
16r
32r
32b
32cc
32a-
32e-
32d
32e-
32a-
32cc
32dd
=56
16ee-
32r
32ee
16ee-
32r
32dd-
16b
32r
32ee-
8a
8b-
8b-[
=57
4b-]
8B-
8D
4E-
=58
*M3/8
4.r
=59
*M6/8
4B-
8B-[
8B-]
4B-
=60
4.E-
4A-
8F
=61
4B-
8B-[
8B-]
4B-
=62
4.E-
4F
8B-[
=63
8B-]
4d
4f
8a-[
=64
8a-]
8g
8e-[
8e-]
8c
8B-[
=65
8B-]
4d
4f
8b-
=66
8a-
8g
8e-
8c
4B-
=67
4B-
8B-[
8B-]
4B-
=68
4B-
8B-[
8B-]
8D
8G
=69
8B-
4d
4f
8dd[
=70
8dd]
8ee-
8g[
8g]
8a-
8c[
=71
8c]
4e-
4A
8e-[
=72
8e-]
8B-
8A-[
8A-]
4G
=73
*M2/4
4r
16bb-
16bb-[
16bb-]
16bb
=74
16aa-
16b
16ff
16a-
16ee-
16ee-[
16ee-]
16ff
=75
16dd
16f
16b-
16d
16b
16b[
16b]
16b-
=76
16ee-
16g-
16gg-
16b-
16ee
16ee[
16ee]
16ee-
=77
4r
8.D
16d
=78
4e-
8.d
16D
=79
4E-
4r
=80
2r
=81
4r
8.b-
16b
=82
8a-
8f
8.e-
16f
=83
8d
8B-
8.B
16B-
=84
8e-
8g-
8.e
16e-
=85
8a-
8b
8.ff
16dd
=86
8b-
8b
8.a-
16f
=87
8d
8e-
4ee-
=88
4ee-
4bb
=89
4bb-
4r
=90
8g-
8g-
8ee-
8ee-
=91
8ee-
8dd-
8dd-
8b-
=92
4b-[
16b-]
8.gg-
=93
4dd-
16aaa-
16fff
16ddd
16eee-
=94
16bb
16aa-
16bb
16aa-
16ff
16gg-
16ee-
16b
=95
8a
8b-
4aa-
=96
16gg-
16g-
16ee-
16e-
4ddd-
=97
16bb
16b
16aa-
16a-
8bb-[
8bb-]
=98
8bb-[
8bb-]
8eee-[
8eee-]
=99
8B-
8A-
8G-
8G
=100
8A-
8G-
8F
8E-
=101
12G
12B-
12e-
12G
12B-
12e-
=102
12G
12B-
12e-
12E-
12A-
12c
=103
12G
12B-
12e-
12E-
12G
12B-
=104
12G
12c
12e-
12c
12A-
12E-
=105
12G
12B-
12e-
8.ff
16dd
=106
8b-
8cc
8.ee-
16cc
=107
8g
8a-
4a-
=108
2a-
=109
2a
=110
8b-
8d
4e-
=111
4e-
4cc
=112
4b-
4g
=113
4g
4ee-
=114
4b-
16r
16D
16F
16A-
=115
4d
16r
16E-
16A-
16c
=116
4f
16r
16A-
16c
16e-
=117
16r
16c
16e-
16a-
16d
16f
16a-
16dd
=118
12ff
12ee-
12dd
12cc
12b-
12a
=119
12a-
12g
12g-
12f
12e
12e-
=120
12d
12c
12B
12B-
12A
12A-
=121
12G
12G-
12F
12E
12E-
12D
=122
12F
12A-
12d
12f
12d
12A-
=123
12F
12A
12d
12f
12d
12A
=124
12F
12B-
12d
12f
12d
12B-
=125
12e
12d-
12B-
12d-
12B-
12G
=126
12F
12A-
12d
12f
12d
12A
=127
12F
12B-
12d
16f
16d
16B
16F
=128
12E
12G
12c
12e
12B-
12G
=129
12g
12e
12d-
12B-
12G
12E
=130
16F
16A-
16d
16f
16a-
16f
16d
16A-
=131
16F
16A
16d
16f
16a
16f
16d
16A
=132
16F
16B-
16d
16f
16b-
16f
16d
16B-
=133
24E
24G
24B-
24d-
24e
24g
4b-[
=134
2b-]
=135
24e
24g
24b-
24dd-
24ee
24gg
4bb-[
=136
2bb-]
=137
2bb-[
=138
4bb-]
8r
16bb-
16ccc
=139
4r
8r
16bb-
16ccc
=140
16aa-
16ff
16ee-
16ff
16dd
16b-
16cc
16dd
=141
16ee-
16gg
16ff
16gg
16aa-
16ccc
8a-[
=142
4a-]
8r
8c[
=143
4c]
8r
16e-
16cc
=144
4ee-
4r
=145
2r
=146
8r
8ee-
8ee-
8ccc
=147
8bb-
8E-
8E-
8c
=148
8B-
16E-
16G-
16c
16e-
16a
16cc
=149
16c
16e-
16a
16cc
16ee-
16aa
16ccc
16eee-
=150
4bb-
4B-
=151
4B-
4g
=152
4g
4ee-
=153
4ee-
4ccc
=154
2bb-
=155
4gg
4ee-
=156
2E-
==
*-
